X: 3
T: MacArthur Road
R: reel
M: 4/4
L: 1/8
K: Emaj
|: B2 Gc Bcef | g2 (3ggg fece | ~f3 g fece | a2 ga gfec |B2 Gc Bcef | g2 (3ggg fece | f3 g fecA | Bcef e4 :||: be (3eee bec'e | beeg fece | ~f3 g fece | a2 ga gfec |[1 be (3eee bec'e | beeg fece | ~f3 g fecA | Bcef e4 :|[2 B2 Gc Bcef | g2 (3ggg fece | f3 g fecA | Bcef e4 |]


Tune 2221	Setting 24532

